svg/free/view-quilt.svg

<svg version="1.1" xmlns="http://www.w3.org/2000/svg" width="24" height="24" viewBox="0 0 24 24">
<title>view-quilt</title>
<path d="M0.75 3v18h22.5v-18zM21.75 11.25h-12.75v-6.75h12.75zM9 12.75h5.625v6.75h-5.625zM2.25 4.5h5.25v15h-5.25zM16.125 19.5v-6.75h5.625v6.75z"></path>
</svg>

<svg xmlns="http://www.w3.org/2000/svg" width="24" height="24" viewBox="0 0 24 24"><path d="M.75 3v18h22.5V3zm21 8.25H9V4.5h12.75zM9 12.75h5.625v6.75H9zM2.25 4.5H7.5v15H2.25zm13.875 15v-6.75h5.625v6.75z"/></svg>
